toolkits/global/packages/global-context/img/icons/ethics.svg

<svg height="24" viewBox="0 0 24 24" width="24" xmlns="http://www.w3.org/2000/svg"><path d="m9.76384967 4.41421356.83301653-.8330165c.7749294-.77492941 2.0313382-.77492941 2.8062676 0l.8330165.8330165c.3750728.37507276.8837806.58578644 1.4142136.58578644h1.3496361c1.1045695 0 2 .8954305 2 2v1.34963611c0 .53043298.2107137 1.03914081.5857864 1.41421356l.8330165.83301653c.7749295.7749294.7749295 2.0313382 0 2.8062676l-.8330165.8330165c-.3750727.3750728-.5857864.8837806-.5857864 1.4142136v1.3496361c0 1.1045695-.8954305 2-2 2h-1.3496361c-.530433 0-1.0391408.2107137-1.4142136.5857864l-.8330165.8330165c-.7749294.7749295-2.0313382.7749295-2.8062676 0l-.83301653-.8330165c-.37507275-.3750727-.88378058-.5857864-1.41421356-.5857864h-1.34963611c-1.1045695 0-2-.8954305-2-2v-1.3496361c0-.530433-.21071368-1.0391408-.58578644-1.4142136l-.8330165-.8330165c-.77492941-.7749294-.77492941-2.0313382 0-2.8062676l.8330165-.83301653c.37507276-.37507275.58578644-.88378058.58578644-1.41421356v-1.34963611c0-1.1045695.8954305-2 2-2h1.34963611c.53043298 0 1.03914081-.21071368 1.41421356-.58578644zm-1.41421356 1.58578644h-1.34963611c-.55228475 0-1 .44771525-1 1v1.34963611c0 .79564947-.31607052 1.55871121-.87867966 2.12132039l-.8330165.8330165c-.38440512.3844051-.38440512 1.0076489 0 1.392054l.8330165.8330165c.56260914.5626092.87867966 1.3256709.87867966 2.1213204v1.3496361c0 .5522847.44771525 1 1 1h1.34963611c.79564947 0 1.55871121.3160705 2.12132039.8786797l.8330165.8330165c.3844051.3844051 1.0076489.3844051 1.392054 0l.8330165-.8330165c.5626092-.5626092 1.3256709-.8786797 2.1213204-.8786797h1.3496361c.5522847 0 1-.4477153 1-1v-1.3496361c0-.7956495.3160705-1.5587112.8786797-2.1213204l.8330165-.8330165c.3844051-.3844051.3844051-1.0076489 0-1.392054l-.8330165-.8330165c-.5626092-.56260918-.8786797-1.32567092-.8786797-2.12132039v-1.34963611c0-.55228475-.4477153-1-1-1h-1.3496361c-.7956495 0-1.5587112-.31607052-2.1213204-.87867966l-.8330165-.8330165c-.3844051-.38440512-1.0076489-.38440512-1.392054 0l-.8330165.8330165c-.56260918.56260914-1.32567092.87867966-2.12132039.87867966zm3.58698939 11.4960218c-.0208122.002155-.0419922.0030286-.0634576.002542-.9876644-.0223875-1.93408566-.3063547-2.75885123-.8155622-.23496767-.1450683-.30784554-.4531483-.16277726-.688116.14506827-.2349677.45314827-.3078455.68811595-.1627773.67447084.4164161 1.44758574.6483839 2.25617384.6667123.0175953.0003988.0349576.0017019.0520437.0038639.0171336-.0017748.0345241-.0026845.0521271-.0026845 2.4852814 0 4.5-2.0147186 4.5-4.5 0-1.0488897-.3593547-2.04134635-1.0074477-2.83787157-.1742817-.21419731-.1419238-.5291218.0722736-.70340353.2141973-.17428173.5291218-.14192375.7034035.07227357.7919032.97327203 1.2317706 2.18808683 1.2317706 3.46900153 0 3.0375661-2.4624339 5.5-5.5 5.5-.0214677 0-.0426194-.0013529-.0633745-.0039782zm1.579751-10.78419583c.2654788.07599731.419084.35281842.3430867.61829728-.0759973.26547885-.3528185.419084-.6182973.3430867-.3756012-.10752146-.7658624-.16587951-1.1556882-.17249193-2.55878074-.00064534-4.5854777 2.00216524-4.5854777 4.49928198 0 .6269156.12797645 1.23496.37274865 1.7964426.11035133.2531347-.0053975.5477984-.25853224.6581497-.25313473.1103514-.54779841-.0053975-.65814974-.2585322-.29947131-.6869568-.45606667-1.430976-.45606667-2.1960601 0-3.05211432 2.47714695-5.50006595 5.5939962-5.49921198.4857618.00815502.962896.0795037 1.4223803.21103795zm-1.9766658 6.41091303 2.69835-2.9465532c.1788432-.2104037.4943901-.23598859.7047939-.0571454.2104037.1788432.2359886.4943901.0571454.7047939l-3.0163768 3.3427739c-.1803909.1999106-.4866955.2210637-.6928541.0478478l-1.9309535-1.6224005c-.21213845-.176782-.24080048-.4920644-.06401844-.7042028.17678204-.2121385.49206439-.2408005.70420284-.0640184z" fill="#666" fill-rule="evenodd"/></svg>

<?xml version="1.0" encoding="UTF-8"?>
<svg width="24px" height="24px" viewBox="0 0 24 24" version="1.1" xmlns="http://www.w3.org/2000/svg" xmlns:xlink="http://www.w3.org/1999/xlink">
    <!-- Generator: Sketch 63.1 (92452) - https://sketch.com -->
    <title>icon-icon / ethics</title>
    <desc>Created with Sketch.</desc>
    <g id="icon-/-ethics" stroke="none" stroke-width="1" fill="none" fill-rule="evenodd">
        <path d="M9.76384967,4.41421356 L10.5968662,3.58119706 C11.3717956,2.80626765 12.6282044,2.80626765 13.4031338,3.58119706 L14.2361503,4.41421356 C14.6112231,4.78928632 15.1199309,5 15.6503639,5 L17,5 C18.1045695,5 19,5.8954305 19,7 L19,8.34963611 C19,8.88006909 19.2107137,9.38877692 19.5857864,9.76384967 L20.4188029,10.5968662 C21.1937324,11.3717956 21.1937324,12.6282044 20.4188029,13.4031338 L19.5857864,14.2361503 C19.2107137,14.6112231 19,15.1199309 19,15.6503639 L19,17 C19,18.1045695 18.1045695,19 17,19 L15.6503639,19 C15.1199309,19 14.6112231,19.2107137 14.2361503,19.5857864 L13.4031338,20.4188029 C12.6282044,21.1937324 11.3717956,21.1937324 10.5968662,20.4188029 L9.76384967,19.5857864 C9.38877692,19.2107137 8.88006909,19 8.34963611,19 L7,19 C5.8954305,19 5,18.1045695 5,17 L5,15.6503639 C5,15.1199309 4.78928632,14.6112231 4.41421356,14.2361503 L3.58119706,13.4031338 C2.80626765,12.6282044 2.80626765,11.3717956 3.58119706,10.5968662 L4.41421356,9.76384967 C4.78928632,9.38877692 5,8.88006909 5,8.34963611 L5,7 C5,5.8954305 5.8954305,5 7,5 L8.34963611,5 C8.88006909,5 9.38877692,4.78928632 9.76384967,4.41421356 Z M8.34963611,6 L7,6 C6.44771525,6 6,6.44771525 6,7 L6,8.34963611 C6,9.14528558 5.68392948,9.90834732 5.12132034,10.4709565 L4.28830384,11.303973 C3.90389872,11.6883781 3.90389872,12.3116219 4.28830384,12.696027 L5.12132034,13.5290435 C5.68392948,14.0916527 6,14.8547144 6,15.6503639 L6,17 C6,17.5522847 6.44771525,18 7,18 L8.34963611,18 C9.14528558,18 9.90834732,18.3160705 10.4709565,18.8786797 L11.303973,19.7116962 C11.6883781,20.0961013 12.3116219,20.0961013 12.696027,19.7116962 L13.5290435,18.8786797 C14.0916527,18.3160705 14.8547144,18 15.6503639,18 L17,18 C17.5522847,18 18,17.5522847 18,17 L18,15.6503639 C18,14.8547144 18.3160705,14.0916527 18.8786797,13.5290435 L19.7116962,12.696027 C20.0961013,12.3116219 20.0961013,11.6883781 19.7116962,11.303973 L18.8786797,10.4709565 C18.3160705,9.90834732 18,9.14528558 18,8.34963611 L18,7 C18,6.44771525 17.5522847,6 17,6 L15.6503639,6 C14.8547144,6 14.0916527,5.68392948 13.5290435,5.12132034 L12.696027,4.28830384 C12.3116219,3.90389872 11.6883781,3.90389872 11.303973,4.28830384 L10.4709565,5.12132034 C9.90834732,5.68392948 9.14528558,6 8.34963611,6 Z M11.9366255,17.4960218 C11.9158133,17.4981768 11.8946333,17.4990504 11.8731679,17.4985638 C10.8855035,17.4761763 9.93908224,17.1922091 9.11431667,16.6830016 C8.879349,16.5379333 8.80647113,16.2298533 8.95153941,15.9948856 C9.09660768,15.7599179 9.40468768,15.6870401 9.63965536,15.8321083 C10.3141262,16.2485244 11.0872411,16.4804922 11.8958292,16.4988206 C11.9134245,16.4992194 11.9307868,16.5005225 11.9478729,16.5026845 C11.9650065,16.5009097 11.982397,16.5 12,16.5 C14.4852814,16.5 16.5,14.4852814 16.5,12 C16.5,10.9511103 16.1406453,9.95865365 15.4925523,9.16212843 C15.3182706,8.94793112 15.3506285,8.63300663 15.5648259,8.4587249 C15.7790232,8.28444317 16.0939477,8.31680115 16.2682294,8.53099847 C17.0601326,9.5042705 17.5,10.7190853 17.5,12 C17.5,15.0375661 15.0375661,17.5 12,17.5 C11.9785323,17.5 11.9573806,17.4986471 11.9366255,17.4960218 L11.9366255,17.4960218 Z M13.5163765,6.71182597 C13.7818553,6.78782328 13.9354605,7.06464439 13.8594632,7.33012325 C13.7834659,7.5956021 13.5066447,7.74920725 13.2411659,7.67320995 C12.8655647,7.56568849 12.4753035,7.50733044 12.0854777,7.50071802 C9.52669696,7.50007268 7.5,9.50288326 7.5,12 C7.5,12.6269156 7.62797645,13.23496 7.87274865,13.7964426 C7.98309998,14.0495773 7.86735115,14.344241 7.61421641,14.4545923 C7.36108168,14.5649437 7.066418,14.4491948 6.95606667,14.1960601 C6.65659536,13.5091033 6.5,12.7650841 6.5,12 C6.5,8.94788568 8.97714695,6.49993405 12.0939962,6.50078802 C12.579758,6.50894304 13.0568922,6.58029172 13.5163765,6.71182597 Z M11.5397107,13.122739 L14.2380607,10.1761858 C14.4169039,9.9657821 14.7324508,9.94019721 14.9428546,10.1190404 C15.1532583,10.2978836 15.1788432,10.6134305 15,10.8238343 L11.9836232,14.1666082 C11.8032323,14.3665188 11.4969277,14.3876719 11.2907691,14.214456 L9.3598156,12.5920555 C9.14767715,12.4152735 9.11901512,12.0999911 9.29579716,11.8878527 C9.4725792,11.6757142 9.78786155,11.6470522 10,11.8238343 L11.5397107,13.122739 Z" id="ethics" fill="#666666"></path>
    </g>
</svg>
